svg/Pictogram/pictograms-hazard_signs-22.svg

<svg viewBox="0 0 94.262 82.946" width="94.26" xmlns="http://www.w3.org/2000/svg"><path d="m46.36.061c-1.506.232-2.828 1.121-3.584 2.438l-42.11 72.949c-.879 1.533-.895 3.443 0 4.986.895 1.545 2.559 2.514 4.359 2.512h84.21c1.799.002 3.463-.967 4.357-2.512.895-1.543.881-3.453 0-4.986l-42.11-72.949c-1.035-1.803-3.086-2.758-5.133-2.438" fill="#fdee1c"/><g fill="#010101"><path d="m46.743 2.12c-.814.127-1.508.617-1.9 1.301l-42.4 73.45c-.463.809-.465 1.848 0 2.65.475.816 1.348 1.352 2.301 1.35h84.8c.951.002 1.826-.533 2.299-1.35.467-.803.465-1.842 0-2.65l-42.4-73.45c-.543-.947-1.595-1.472-2.699-1.3m.401 8.451l36 63.4h-72.05l36.05-63.4"/><g fill-rule="evenodd"><path d="m41.692 71.16h25.839l2.672-6.91-1.045-.35c-1.459.664-2.02 1.568-2.439 2.613l-26.01-1.219.986 5.866"/><path d="m31.647 47.24l4.529 24.16h-10.976c-1.072-.463-1.359-1.371-.986-2.672l7.433-21.484"/><path d="m37.34 45.989c.055-.865.367-1.678 1.191-2.09l4.209-1.83c.709-.115 1.742-.164 2.613-.057 1.307.342 2.244 1.277 2.642 2.496-.047 1.906-.654 2.166-1.103 2.934l-2.961 1.654-.582.754c-.143.09-.289.119-.436-.057l-1.131-1.25v.844l-.639.289c-1.133.104-2.086-.033-2.236-.436-.77-1.083-1.217-2.167-1.567-3.251"/><path d="m37.18 71.19c0-.301-4.85-24.949-4.85-24.949.932-.338 1.881-.631 3.25-.4.34.15.654.451.801.949l4.148 21.25c.105.697.012 1.203-.199 1.6-1.051 1.075-2.1 1.439-3.15 1.55"/></g></g></svg>

<?xml version="1.0" encoding="iso-8859-1"?>
<!-- Generator: Adobe Illustrator 13.0.2, SVG Export Plug-In . SVG Version: 6.00 Build 14948)  --><svg baseProfile="tiny" height="82.946px" id="Layer_1" space="preserve" version="1.2" viewBox="0 0 94.262 82.946" width="94.262px" x="0px" xmlns="http://www.w3.org/2000/svg" xmlns:xlink="http://www.w3.org/1999/xlink" y="0px">
  <metadata>
    <rdf:RDF xmlns:cc="http://web.resource.org/cc/" xmlns:dc="http://purl.org/dc/elements/1.1/" xmlns:rdf="http://www.w3.org/1999/02/22-rdf-syntax-ns#">
      <cc:Work rdf:about="">
        <dc:title></dc:title>
        <dc:description></dc:description>
        <dc:subject>
          <rdf:Bag>
            <rdf:li></rdf:li>
          </rdf:Bag>
        </dc:subject>
        <dc:publisher>
          <cc:Agent rdf:about="http://openclipart.org">
            <dc:title>Source: Open Clip Art Library, Source: Open Clip Art Library</dc:title>
          </cc:Agent>
        </dc:publisher>
        <dc:creator>
          <cc:Agent>
            <dc:title></dc:title>
          </cc:Agent>
        </dc:creator>
        <dc:rights>
          <cc:Agent>
            <dc:title></dc:title>
          </cc:Agent>
        </dc:rights>
        <dc:date></dc:date>
        <dc:format>image/svg+xml</dc:format>
        <dc:type rdf:resource="http://purl.org/dc/dcmitype/StillImage"/>
        <cc:license rdf:resource="http://en.wikipedia.org/wiki/Public_domain"/>
        <dc:language>en</dc:language>
      </cc:Work>
    </rdf:RDF>
  </metadata>
  <path d="M46.356,0.061c-1.506,0.232-2.828,1.121-3.584,2.438L0.665,75.448c-0.879,1.533-0.895,3.443,0,4.986  c0.895,1.545,2.559,2.514,4.359,2.512h84.214c1.799,0.002,3.463-0.967,4.357-2.512c0.895-1.543,0.881-3.453,0-4.986L51.489,2.499  C50.454,0.696,48.403-0.259,46.356,0.061L46.356,0.061z" fill="#FDEE1C"/>
  <path d="M46.743,2.12c-0.814,0.127-1.508,0.617-1.9,1.301L2.442,76.87c-0.463,0.809-0.465,1.848,0,2.65  c0.475,0.816,1.348,1.352,2.301,1.35h84.8c0.951,0.002,1.826-0.533,2.299-1.35c0.467-0.803,0.465-1.842,0-2.65L49.442,3.42  C48.899,2.473,47.847,1.948,46.743,2.12L46.743,2.12z M47.144,10.571l36,63.4h-72.05L47.144,10.571L47.144,10.571z" fill="#010101"/>
  <path d="M41.692,71.163h25.839l2.672-6.91l-1.045-0.35c-1.459,0.664-2.02,1.568-2.439,2.613  l-26.013-1.219L41.692,71.163L41.692,71.163z" fill="#010101" fill-rule="evenodd"/>
  <path d="M31.647,47.239l4.529,24.156H25.2c-1.072-0.463-1.359-1.371-0.986-2.672L31.647,47.239  L31.647,47.239z" fill="#010101" fill-rule="evenodd"/>
  <path d="M37.337,45.989c0.055-0.865,0.367-1.678,1.191-2.09l4.209-1.83  c0.709-0.115,1.742-0.164,2.613-0.057c1.307,0.342,2.244,1.277,2.642,2.496c-0.047,1.906-0.654,2.166-1.103,2.934l-2.961,1.654  l-0.582,0.754c-0.143,0.09-0.289,0.119-0.436-0.057l-1.131-1.25v0.844l-0.639,0.289c-1.133,0.104-2.086-0.033-2.236-0.436  C38.134,48.157,37.687,47.073,37.337,45.989L37.337,45.989z" fill="#010101" fill-rule="evenodd"/>
  <path d="M37.179,71.194c0-0.301-4.85-24.949-4.85-24.949c0.932-0.338,1.881-0.631,3.25-0.4  c0.34,0.15,0.654,0.451,0.801,0.949l4.148,21.25c0.105,0.697,0.012,1.203-0.199,1.6C39.278,70.719,38.229,71.083,37.179,71.194  L37.179,71.194z" fill="#010101" fill-rule="evenodd"/>
</svg>
